svg/blobs-icons/no-decorations/oil-drilling-rig.svg

<svg xmlns="http://www.w3.org/2000/svg" xmlns:xlink="http://www.w3.org/1999/xlink" preserveAspectRatio="xMidYMid" width="187" height="217" viewBox="0 0 187 217"><defs><style>.cls-3{fill:#142a3b}.cls-5{fill:#ff3a2f}.cls-8{fill:#000;opacity:.35}</style></defs><g id="group-114svg"><path d="M139.772 212.774s-65.762.0-65.762.0S91.045 61.829 91.045 61.829s30.466 15.768 30.466 15.768 18.261 135.177 18.261 135.177zm-57.721-6.999s49.501.0 49.501.0-16.66-123.476-16.66-123.476S97.017 73.192 97.017 73.192 82.051 205.775 82.051 205.775z" id="path-1" class="cls-3" fill-rule="evenodd"/><path d="M133.168 208.306C132.429 208.306 131.682 208.078 131.042 207.606L79.919 169.971s36.985-46.369 36.985-46.369-26.141-23.257-26.141-23.257C89.281 99.027 89.148 96.756 90.467 95.274 91.785 93.792 94.056 93.659 95.538 94.978l31.227 27.782s-36.574 45.853-36.574 45.853S135.3 201.822 135.3 201.822C136.898 202.998 137.241 205.246 136.063 206.844 135.36 207.799 134.271 208.306 133.168 208.306z" id="path-2" class="cls-3" fill-rule="evenodd"/><path d="M148.782 94.808S50.641 49.551 50.641 49.551s3.942-9.185 3.942-9.185 98.141 45.257 98.141 45.257S148.782 94.808 148.782 94.808z" id="path-3" class="cls-5" fill-rule="evenodd"/><path d="M36.906 216.112C34.922 216.112 33.406 214.503 33.406 212.519V86.792C33.406 84.808 34.922 83.2 36.906 83.2s3.5 1.608 3.5 3.592V212.519C40.406 214.503 38.89 216.112 36.906 216.112z" id="path-4" class="cls-3" fill-rule="evenodd"/><path d="M38.984 90.259C29.595 88.9 20.547 84.607 13.323 77.377-4.47 59.571-4.47 30.701 13.323 12.896 20.595 5.619 29.714 1.314 39.17-.013L59.556 45.123S38.984 90.259 38.984 90.259z" id="path-5" class="cls-3" fill-rule="evenodd"/><path d="M56.352 38.6S35.778 83.736 35.778 83.736C26.389 82.378 17.343 78.083 10.118 70.853 7.379 68.113 5.112 65.086 3.217 61.901 5.44 67.493 8.801 72.737 13.323 77.263c7.224 7.229 16.272 11.524 25.661 12.882L59.557 45.009S56.352 38.6 56.352 38.6z" id="path-6" class="cls-8" fill-rule="evenodd"/><path d="M187.406 215.773s-158 0-158 0S29.406 205.775 29.406 205.775s158 0 158 0S187.406 215.773 187.406 215.773z" id="path-7" class="cls-3" fill-rule="evenodd"/></g></svg>

<svg xmlns="http://www.w3.org/2000/svg" xmlns:xlink="http://www.w3.org/1999/xlink" preserveAspectRatio="xMidYMid" width="187" height="217" viewBox="0 0 187 217">
  <defs>
    <style>

      .cls-3 {
        fill: #142a3b;
      }

      .cls-5 {
        fill: #ff3a2f;
      }

      .cls-8 {
        fill: #000000;
        opacity: 0.35;
      }
    </style>
  </defs>
  <g id="group-114svg">
    <path d="M139.772,212.774 C139.772,212.774 74.010,212.774 74.010,212.774 C74.010,212.774 91.045,61.829 91.045,61.829 C91.045,61.829 121.511,77.597 121.511,77.597 C121.511,77.597 139.772,212.774 139.772,212.774 ZM82.051,205.775 C82.051,205.775 131.552,205.775 131.552,205.775 C131.552,205.775 114.892,82.299 114.892,82.299 C114.892,82.299 97.017,73.192 97.017,73.192 C97.017,73.192 82.051,205.775 82.051,205.775 Z" id="path-1" class="cls-3" fill-rule="evenodd"/>
    <path d="M133.168,208.306 C132.429,208.306 131.682,208.078 131.042,207.606 C131.042,207.606 79.919,169.971 79.919,169.971 C79.919,169.971 116.904,123.602 116.904,123.602 C116.904,123.602 90.763,100.345 90.763,100.345 C89.281,99.027 89.148,96.756 90.467,95.274 C91.785,93.792 94.056,93.659 95.538,94.978 C95.538,94.978 126.765,122.760 126.765,122.760 C126.765,122.760 90.191,168.613 90.191,168.613 C90.191,168.613 135.300,201.822 135.300,201.822 C136.898,202.998 137.241,205.246 136.063,206.844 C135.360,207.799 134.271,208.306 133.168,208.306 Z" id="path-2" class="cls-3" fill-rule="evenodd"/>
    <path d="M148.782,94.808 C148.782,94.808 50.641,49.551 50.641,49.551 C50.641,49.551 54.583,40.366 54.583,40.366 C54.583,40.366 152.724,85.623 152.724,85.623 C152.724,85.623 148.782,94.808 148.782,94.808 Z" id="path-3" class="cls-5" fill-rule="evenodd"/>
    <path d="M36.906,216.112 C34.922,216.112 33.406,214.503 33.406,212.519 C33.406,212.519 33.406,86.792 33.406,86.792 C33.406,84.808 34.922,83.200 36.906,83.200 C38.890,83.200 40.406,84.808 40.406,86.792 C40.406,86.792 40.406,212.519 40.406,212.519 C40.406,214.503 38.890,216.112 36.906,216.112 Z" id="path-4" class="cls-3" fill-rule="evenodd"/>
    <path d="M38.984,90.259 C29.595,88.900 20.547,84.607 13.323,77.377 C-4.470,59.571 -4.470,30.701 13.323,12.896 C20.595,5.619 29.714,1.314 39.170,-0.013 C39.170,-0.013 59.556,45.123 59.556,45.123 C59.556,45.123 38.984,90.259 38.984,90.259 Z" id="path-5" class="cls-3" fill-rule="evenodd"/>
    <path d="M56.352,38.600 C56.352,38.600 35.778,83.736 35.778,83.736 C26.389,82.378 17.343,78.083 10.118,70.853 C7.379,68.113 5.112,65.086 3.217,61.901 C5.440,67.493 8.801,72.737 13.323,77.263 C20.547,84.492 29.595,88.787 38.984,90.145 C38.984,90.145 59.557,45.009 59.557,45.009 C59.557,45.009 56.352,38.600 56.352,38.600 Z" id="path-6" class="cls-8" fill-rule="evenodd"/>
    <path d="M187.406,215.773 C187.406,215.773 29.406,215.773 29.406,215.773 C29.406,215.773 29.406,205.775 29.406,205.775 C29.406,205.775 187.406,205.775 187.406,205.775 C187.406,205.775 187.406,215.773 187.406,215.773 Z" id="path-7" class="cls-3" fill-rule="evenodd"/>
  </g>
</svg>
